packages/core/src/svgs/tokens/branded/NCDT.svg

<svg width="24" height="24" viewBox="0 0 24 24" fill="none" xmlns="http://www.w3.org/2000/svg">
<path d="M2.42552 11.7912H2.85105V12.2167H2.42552V11.7912ZM2 11.3657H2.42552V11.7912H2V11.3657ZM2.42552 10.9401H2.85105V11.3657H2.42552V10.9401ZM2.85105 11.3657H3.27657V11.7912H2.85105V11.3657ZM2.85105 10.5147H3.27657V10.9401H2.85105V10.5147ZM3.27657 10.0891H3.7021V10.5147H3.27657V10.0891ZM4.12762 10.0891H4.55316V10.5147H4.12762V10.0891ZM4.55316 9.66356H4.97868V10.0891H4.55316V9.66356ZM4.97868 9.23804H5.40421V9.66356H4.97868V9.23804ZM18.9614 13.9188C18.8415 13.9194 18.7227 13.8963 18.6116 13.8507C18.5007 13.8052 18.3999 13.7382 18.3148 13.6536C18.2298 13.569 18.1624 13.4684 18.1163 13.3577C18.0703 13.2469 18.0466 13.1282 18.0466 13.0082V12.004H18.4721V13.0465C18.4721 13.1757 18.5235 13.2996 18.6148 13.391C18.7062 13.4824 18.8301 13.5338 18.9594 13.5338C19.0885 13.5338 19.2124 13.4824 19.3039 13.391C19.3952 13.2996 19.4466 13.1757 19.4466 13.0465V12.004H19.8721V13.0082C19.8721 13.5103 19.4635 13.9188 18.9614 13.9188Z" fill="#0C7BFE"/>
<path fill-rule="evenodd" clip-rule="evenodd" d="M16.9786 13.9189C17.5105 13.9189 17.9444 13.4934 17.9444 12.9614C17.9439 12.8348 17.9183 12.7095 17.8693 12.5928C17.8201 12.476 17.7484 12.3702 17.6583 12.2812C17.5681 12.1922 17.4613 12.1219 17.3439 12.0744C17.2266 12.0268 17.1009 12.0029 16.9743 12.0041C16.4424 12.0041 16.0083 12.4295 16.0083 12.9614C16.0089 13.0877 16.0343 13.2127 16.0832 13.3292C16.132 13.4457 16.2033 13.5513 16.2931 13.6403C16.3827 13.7291 16.4891 13.7995 16.6059 13.8473C16.7228 13.8951 16.848 13.9195 16.9743 13.9189H16.9786ZM16.9786 13.4891C17.2722 13.4891 17.5105 13.2508 17.5105 12.9572C17.5105 12.6636 17.2722 12.4295 16.9743 12.4295C16.6764 12.4295 16.4381 12.6636 16.4381 12.9572C16.4381 13.2508 16.6807 13.4934 16.9786 13.4934V13.4891Z" fill="#0C7BFE"/>
<path d="M15.285 13.5061C15.1673 13.6711 15.0005 13.7948 14.8084 13.8594C14.6164 13.924 14.4087 13.9262 14.2153 13.8659C14.0218 13.8055 13.8524 13.6855 13.7312 13.5231C13.61 13.3607 13.5431 13.1641 13.5403 12.9614C13.5395 12.7558 13.6049 12.5553 13.7269 12.3897C13.849 12.2242 14.021 12.1023 14.2177 12.0421C14.4144 11.982 14.6252 11.9868 14.8189 12.0558C15.0127 12.1248 15.179 12.2544 15.2934 12.4253L14.9658 12.7402C14.9129 12.6345 14.8258 12.5497 14.7185 12.4998C14.6113 12.4499 14.4904 12.4378 14.3754 12.4655C14.2604 12.4931 14.1581 12.5588 14.0854 12.652C14.0125 12.7452 13.9734 12.8603 13.9744 12.9785C13.9762 13.0957 14.0174 13.2088 14.0912 13.2998C14.1651 13.3908 14.2673 13.4543 14.3815 13.4803C14.4958 13.5063 14.6155 13.4932 14.7214 13.4431C14.8274 13.393 14.9134 13.3088 14.9658 13.204L15.285 13.5061ZM12.8594 12.9657C12.8594 13.2636 12.6169 13.4976 12.3233 13.4976C12.0254 13.4976 11.7871 13.2593 11.7871 12.9657C11.7871 12.6764 12.0297 12.4381 12.3233 12.4381C12.6211 12.4381 12.8594 12.6764 12.8594 12.9657Z" fill="#0C7BFE"/>
<path fill-rule="evenodd" clip-rule="evenodd" d="M5.58722 15.1954C4.12766 14.9018 3.82979 13.8635 3.68512 13.4934H4.97872V13.0678H3.96597V12.6423H4.26809V12.2167H4.69361V11.7913H4.12766V12.2167H3.70214V11.3657H3.27661V10.9402H4.5532V10.5147H4.97872V10.0891H5.40424V9.66361H5.82977V10.0891H6.68082V9.49766H6.4638V9.25937C7.09811 8.87362 7.84909 8.72642 8.58208 8.84417C9.31508 8.96192 9.98216 9.3369 10.4638 9.90191C12.468 9.57 12.8297 10.9572 12.7616 11.6934C13.4595 11.9912 13.6765 12.7657 13.6978 13.1146C13.6978 13.2593 13.6808 13.3955 13.6552 13.5232C13.6552 13.3955 13.5531 13.2933 13.4211 13.2933C13.2935 13.2933 13.1871 13.3955 13.1871 13.5232C13.1871 13.5757 13.2048 13.6267 13.2373 13.668C13.2698 13.7094 13.3153 13.7385 13.3664 13.7508C13.4176 13.7631 13.4714 13.7578 13.5191 13.7358C13.5668 13.7138 13.6058 13.6764 13.6296 13.6295C13.4211 14.6168 12.5148 15.1954 12.1403 15.1954H5.58722ZM5.82977 10.5147H6.68082V10.9402H5.82977V10.5147ZM5.19148 12.9614C5.19148 12.7075 5.29236 12.464 5.47191 12.2844C5.65146 12.1048 5.89498 12.0041 6.14892 12.0041C6.40284 12.0041 6.64637 12.1048 6.82592 12.2844C7.00548 12.464 7.10634 12.7075 7.10634 12.9614V13.9189H6.68082V12.9232C6.68082 12.7821 6.62478 12.6468 6.52503 12.5471C6.42528 12.4473 6.28999 12.3913 6.14892 12.3913C6.00785 12.3913 5.87255 12.4473 5.7728 12.5471C5.67305 12.6468 5.617 12.7821 5.617 12.9232V13.9189H5.19148V12.9614ZM8.27655 13.9189C7.7489 13.9189 7.31911 13.4934 7.31911 12.9614V12.0041H7.74464V12.9997C7.74464 13.1408 7.80067 13.2762 7.90043 13.3758C8.00018 13.4756 8.13548 13.5316 8.27655 13.5316C8.41762 13.5316 8.55291 13.4756 8.65266 13.3758C8.75241 13.2762 8.80845 13.1408 8.80845 12.9997V12.0041H9.23398V12.9614C9.23398 13.4891 8.80845 13.9189 8.27655 13.9189ZM13.2935 12.9614C13.2929 13.0881 13.2673 13.2134 13.2183 13.3302C13.1691 13.4468 13.0974 13.5528 13.0073 13.6417C12.9171 13.7307 12.8103 13.801 12.6929 13.8486C12.5756 13.8961 12.45 13.92 12.3233 13.9189C11.7871 13.9189 11.3531 13.4934 11.3531 12.9614C11.3536 12.8348 11.3792 12.7095 11.4283 12.5927C11.4774 12.476 11.5491 12.3701 11.6393 12.2812C11.7294 12.1922 11.8363 12.1219 11.9536 12.0744C12.071 12.0268 12.1967 12.0029 12.3233 12.0041C12.8595 12.0041 13.2935 12.4295 13.2935 12.9614ZM11.102 13.5061C10.9838 13.6729 10.8159 13.7982 10.6223 13.8639C10.4286 13.9297 10.2192 13.9325 10.0238 13.8721C9.82848 13.8117 9.65721 13.6911 9.53447 13.5276C9.41172 13.364 9.34378 13.1659 9.34036 12.9614C9.34305 12.7554 9.41125 12.5556 9.53511 12.3909C9.65897 12.2263 9.83203 12.1052 10.0292 12.0456C10.2264 11.9858 10.4376 11.9905 10.632 12.0587C10.8264 12.127 10.994 12.2554 11.1106 12.4252L10.7786 12.7445C10.7276 12.6376 10.6419 12.5512 10.5356 12.4994C10.4291 12.4475 10.3083 12.4333 10.1927 12.4589C10.0772 12.4846 9.97376 12.5488 9.89933 12.6407C9.82489 12.7327 9.78385 12.8473 9.78291 12.9657C9.78291 13.2551 10.0169 13.4849 10.3063 13.4849C10.5106 13.4849 10.6893 13.37 10.7744 13.1997L11.102 13.5061Z" fill="#0C7BFE"/>
<path d="M3.70237 12.2167V12.6423H2.85132V12.2167H3.70237ZM15.4384 11.3657H15.8639V13.9189H15.4384V11.3657ZM22 11.3657H21.5745V12.0041H21.0298C20.4979 12.0041 20.0638 12.4295 20.0638 12.9614C20.0644 13.0877 20.0898 13.2127 20.1387 13.3292C20.1875 13.4456 20.2588 13.5513 20.3485 13.6402C20.4382 13.7291 20.5446 13.7995 20.6614 13.8473C20.7783 13.8951 20.9035 13.9194 21.0298 13.9189C21.5447 13.9189 21.9659 13.5232 21.9957 13.0252H22V11.3657ZM21.5745 12.9827C21.5745 13.2806 21.3362 13.5232 21.0298 13.5232C20.7277 13.5232 20.4766 13.2806 20.4766 12.9785C20.4766 12.6806 20.7277 12.438 21.0298 12.438H21.5745V12.9827Z" fill="#0C7BFE"/>
</svg>

<svg xmlns="http://www.w3.org/2000/svg" width="24" height="24" fill="none" viewBox="0 0 24 24">
    <path fill="#0C7BFE" d="M2.426 11.791h.425v.426h-.425zM2 11.366h.426v.425H2zm.426-.426h.425v.426h-.425zm.425.426h.426v.425H2.85zm0-.851h.426v.425H2.85zm.426-.426h.425v.426h-.425zm.85 0h.426v.426h-.425zm.426-.425h.426v.425h-.426zm.426-.426h.425v.426H4.98zm13.982 4.68a.91.91 0 0 1-.914-.91v-1.004h.425v1.043a.488.488 0 0 0 .975 0v-1.043h.425v1.004c0 .502-.409.91-.91.91"/>
    <path fill="#0C7BFE" fill-rule="evenodd" d="M16.979 13.919a.96.96 0 0 0 .965-.958.96.96 0 0 0-.97-.957.96.96 0 0 0-.966.957.96.96 0 0 0 .966.958zm0-.43a.53.53 0 1 0-.004-1.06.53.53 0 0 0-.537.528.54.54 0 0 0 .54.536z" clip-rule="evenodd"/>
    <path fill="#0C7BFE" d="M15.285 13.506a.962.962 0 0 1-1.745-.545.958.958 0 0 1 1.753-.536l-.327.315a.523.523 0 0 0-.992.239.523.523 0 0 0 .992.225zm-2.426-.54a.533.533 0 0 1-.536.532.533.533 0 0 1-.536-.532c0-.29.243-.528.536-.528.298 0 .536.238.536.528"/>
    <path fill="#0C7BFE" fill-rule="evenodd" d="M5.587 15.195c-1.46-.293-1.757-1.332-1.902-1.702H4.98v-.425H3.966v-.426h.302v-.425h.426v-.426h-.566v.426h-.426v-.851h-.425v-.426h1.276v-.425h.426v-.426h.425v-.425h.426v.425h.85v-.591h-.216v-.239a3.12 3.12 0 0 1 4 .643c2.004-.332 2.366 1.055 2.298 1.791.697.298.915 1.073.936 1.422q-.002.216-.043.408a.23.23 0 0 0-.234-.23.233.233 0 0 0-.234.23.234.234 0 0 0 .443.107c-.209.987-1.115 1.565-1.49 1.565zm.243-4.68h.85v.425h-.85zm-.64 2.445a.958.958 0 0 1 1.915 0v.958H6.68v-.996a.532.532 0 1 0-1.064 0v.996H5.19zm3.086.958a.956.956 0 0 1-.958-.958v-.957h.426V13a.532.532 0 1 0 1.063 0v-.996h.426v.957a.956.956 0 0 1-.957.958m5.017-.958a.965.965 0 0 1-.601.888 1 1 0 0 1-.37.07.96.96 0 0 1-.97-.958.96.96 0 0 1 .97-.957c.537 0 .97.426.97.957m-2.192.545a.97.97 0 0 1-1.762-.545.97.97 0 0 1 1.77-.536l-.331.32a.523.523 0 0 0-.996.22c0 .29.234.52.523.52a.52.52 0 0 0 .468-.285z" clip-rule="evenodd"/>
    <path fill="#0C7BFE" d="M3.702 12.217v.425h-.85v-.425zm11.736-.851h.426v2.553h-.426zm6.562 0h-.425v.638h-.545a.96.96 0 0 0-.966.957.96.96 0 0 0 .966.958.96.96 0 0 0 .966-.894H22zm-.425 1.617a.54.54 0 0 1-.545.54.55.55 0 0 1-.553-.544.55.55 0 0 1 .553-.541h.544z"/>
</svg>
